img/users/compass.svg

<svg version="1.1" xmlns="http://www.w3.org/2000/svg" xmlns:xlink="http://www.w3.org/1999/xlink"
    viewBox="0 0 97 13">
  <title>Compass Logo</title>
  <path d="M21.0968992,1.781 C23.6951519,1.781 25.8090719,3.89787069 25.8090719,6.5 C25.8090719,9.10201724 23.6951519,11.219 21.0968992,11.219 C18.4985345,11.219 16.3846145,9.10201724 16.3846145,6.5 C16.3846145,3.89787069 18.4985345,1.781 21.0968992,1.781 M21.0968992,0.0140086207 C17.5199093,0.0140086207 14.6202914,2.91782759 14.6202914,6.5 C14.6202914,10.0820603 17.5199093,12.9859914 21.0968992,12.9859914 C24.6737771,12.9859914 27.5735069,10.0820603 27.5735069,6.5 C27.5735069,2.91782759 24.6737771,0.0140086207 21.0968992,0.0140086207"></path>
  <path d="M45.3902433,0 C45.326904,0 45.2739721,0.0342931034 45.2424144,0.0830431034 L38.5697459,9.11400862 L31.8969655,0.0830431034 C31.8655197,0.0342931034 31.8124759,0 31.7491366,0 C31.6509943,0 31.5714286,0.077887931 31.5714286,0.173931034 L31.5714286,12.2067759 L33.3358635,12.2067759 L33.3358635,5.1010431 L38.4662321,11.9929483 C38.4912992,12.0221983 38.5277809,12.0418103 38.5697459,12.0419224 C38.611711,12.0418103 38.6480807,12.0221983 38.6731478,11.9929483 L43.8035164,5.1010431 L43.8035164,12.2067759 L45.5679514,12.2067759 L45.5679514,0.173931034 C45.5679514,0.077887931 45.4883856,0 45.3902433,0"></path>
  <path d="M52.0000818,8.22799138 L52.0000818,12.6035 L50.2356468,12.6035 L50.2356468,0.396724138"></path>
  <path d="M56.1153435,0.396724138 L50.2356468,0.396724138 L50.2356468,12.6035 L52.0000818,12.6035 L52.0000818,8.22799138 L56.1153435,8.22799138 C58.2746977,8.22799138 60.0252562,6.47489655 60.0252562,4.31230172 C60.0252562,2.14981897 58.2746977,0.396724138 56.1153435,0.396724138 L56.1153435,0.396724138 Z M56.1153435,6.461 L52.0000818,6.461 L52.0000818,2.16371552 L56.1153435,2.16371552 C57.2983106,2.16371552 58.2608213,3.12762069 58.2608213,4.31230172 C58.2608213,5.49709483 57.2983106,6.461 56.1153435,6.461 L56.1153435,6.461 Z"></path>
  <path d="M10.2475321,9.38409483 C9.38495428,10.499181 8.03614128,11.219 6.52181807,11.219 C3.92345341,11.219 1.80964533,9.10212931 1.80964533,6.5 C1.80964533,3.89798276 3.92345341,1.781 6.52181807,1.781 C8.03602937,1.781 9.38484238,2.50081897 10.2475321,3.6157931 L11.5145412,2.36868966 C10.3265383,0.930508621 8.53110518,0.0140086207 6.52181807,0.0140086207 C2.9448282,0.0140086207 0.0452103588,2.91793966 0.0452103588,6.5 C0.0452103588,10.0821724 2.9448282,12.9859914 6.52181807,12.9859914 C8.53110518,12.9859914 10.3266502,12.0694914 11.5146531,10.6313103 L10.2475321,9.38409483"></path>
  <path d="M80.2979616,12.8205776 C78.2571168,12.8205776 76.8314238,11.6895776 75.9948083,10.7409138 L77.2386527,9.52552586 C77.5508728,9.92998276 78.5975373,11.0940431 80.2979616,11.0940431 C81.8873743,11.0940431 82.9973781,10.2930862 82.9973781,9.14606034 C82.9973781,8.16534483 82.3310849,7.50559483 80.9598905,7.12926724 L79.4727606,6.79126724 C76.2925924,6.01081897 76.2925924,4.10306897 76.2925924,3.4760431 C76.2925924,1.50418966 77.8825646,0.179310345 80.2489464,0.179310345 C81.8025489,0.179310345 83.1246162,0.771482759 84.2907972,1.98967241 L83.0469528,3.20685345 C82.7279065,2.87266379 81.6818014,1.90606897 80.2489464,1.90606897 C78.8559302,1.90606897 78.0570273,2.47818103 78.0570273,3.4760431 C78.0570273,3.77358621 78.1697175,4.76819828 79.621261,5.08019828 L80.973655,5.38513793 C83.4513841,5.96767241 84.761925,7.26823276 84.761925,9.14606034 C84.761925,11.2407414 82.8428348,12.8205776 80.2979616,12.8205776"></path>
  <path d="M92.1784382,12.8205776 C90.1375933,12.8205776 88.7119003,11.6895776 87.8752849,10.7409138 L89.1191293,9.52552586 C89.4313493,9.92998276 90.4780139,11.0940431 92.1784382,11.0940431 C93.7678508,11.0940431 94.8778547,10.2930862 94.8778547,9.14606034 C94.8778547,8.16534483 94.2115614,7.50559483 92.840367,7.12926724 L91.3532372,6.79126724 C88.1730689,6.01081897 88.1730689,4.10306897 88.1730689,3.4760431 C88.1730689,1.50418966 89.7630412,0.179310345 92.129423,0.179310345 C93.6830255,0.179310345 95.0049808,0.771482759 96.1712738,1.98967241 L94.9274294,3.20685345 C94.608383,2.87266379 93.562278,1.90606897 92.129423,1.90606897 C90.7364068,1.90606897 89.9375039,2.47818103 89.9375039,3.4760431 C89.9375039,3.77358621 90.0501941,4.76819828 91.5017376,5.08019828 L92.8541316,5.38513793 C95.3318607,5.96767241 96.6422896,7.26823276 96.6422896,9.14606034 C96.6422896,11.2407414 94.7233113,12.8205776 92.1784382,12.8205776"></path>
  <path d="M23.8780077,4.9642069 L19.563328,9.28513793 L18.3156787,8.03568103 L22.6303584,3.71475 L23.8780077,4.9642069"></path>
  <path d="M67.374961,0.391008621 C67.3468724,0.331051724 67.2858832,0.289025862 67.2141509,0.289025862 C67.1423067,0.289025862 67.0813175,0.331051724 67.0532289,0.391008621 L60.620041,12.6035 L62.6156755,12.6035 L64.2631678,9.47475862 L70.1650221,9.47475862 L71.8125144,12.6035 L73.8081489,12.6035 L67.374961,0.391008621 L67.374961,0.391008621 Z M65.1936731,7.70776724 L67.2141509,3.87075 L69.2345168,7.70776724 L65.1936731,7.70776724 L65.1936731,7.70776724 Z"></path>
</svg>

<svg xmlns="http://www.w3.org/2000/svg" viewBox="0 0 97 13"><path d="M21.097 1.781A4.72 4.72 0 0 1 25.809 6.5a4.721 4.721 0 0 1-4.712 4.719A4.721 4.721 0 0 1 16.385 6.5a4.72 4.72 0 0 1 4.712-4.719m0-1.767A6.481 6.481 0 0 0 14.62 6.5c0 3.582 2.9 6.486 6.477 6.486A6.481 6.481 0 0 0 27.574 6.5c0-3.582-2.9-6.486-6.477-6.486M45.39 0a.176.176 0 0 0-.148.083L38.57 9.114 31.897.083a.176.176 0 0 0-.326.09v12.034h1.765V5.1l5.13 6.892a.133.133 0 0 0 .207-.001l5.13-6.891v7.106h1.765V.174A.176.176 0 0 0 45.39 0M52 8.228v4.376h-1.764V.396"/><path d="M56.115.397h-5.88v12.207H52V8.227h4.115c2.16 0 3.91-1.753 3.91-3.916a3.913 3.913 0 0 0-3.91-3.915zm0 6.064H52V2.164h4.115a2.15 2.15 0 0 1 0 4.297zM10.248 9.384a4.703 4.703 0 0 1-3.726 1.835A4.72 4.72 0 0 1 1.81 6.5a4.72 4.72 0 0 1 4.712-4.719c1.514 0 2.863.72 3.726 1.835l1.267-1.247A6.46 6.46 0 0 0 6.522.014 6.481 6.481 0 0 0 .045 6.5c0 3.582 2.9 6.486 6.477 6.486a6.46 6.46 0 0 0 4.993-2.355l-1.267-1.247m70.05 3.436c-2.04 0-3.467-1.13-4.303-2.08l1.244-1.214c.312.404 1.359 1.568 3.059 1.568 1.59 0 2.7-.8 2.7-1.948 0-.98-.667-1.64-2.038-2.017l-1.487-.338c-3.18-.78-3.18-2.688-3.18-3.315 0-1.972 1.59-3.297 3.956-3.297 1.554 0 2.876.592 4.042 1.81l-1.244 1.218c-.32-.334-1.365-1.3-2.798-1.3-1.393 0-2.192.571-2.192 1.569 0 .298.113 1.292 1.564 1.604l1.353.305c2.477.583 3.788 1.883 3.788 3.761 0 2.095-1.92 3.675-4.464 3.675m11.88-.001c-2.04 0-3.466-1.13-4.303-2.08l1.244-1.214c.312.404 1.359 1.568 3.06 1.568 1.589 0 2.699-.8 2.699-1.948 0-.98-.666-1.64-2.038-2.017l-1.487-.338c-3.18-.78-3.18-2.688-3.18-3.315 0-1.972 1.59-3.297 3.956-3.297 1.554 0 2.876.592 4.042 1.81l-1.244 1.218c-.319-.334-1.365-1.3-2.798-1.3-1.393 0-2.191.571-2.191 1.569 0 .298.112 1.292 1.564 1.604l1.352.305c2.478.583 3.788 1.883 3.788 3.761 0 2.095-1.919 3.675-4.464 3.675m-68.3-7.857l-4.315 4.321-1.247-1.25 4.314-4.32 1.248 1.25M67.375.391a.177.177 0 0 0-.322 0L60.62 12.604h1.996l1.647-3.13h5.902l1.648 3.13h1.995L67.375.39zm-2.181 7.317l2.02-3.837 2.02 3.837h-4.04z"/></svg>
